X:2332
T:Car ny Rankee 
C:Mrs Shimmin, Foxdale 
C:Traditional
O:Isle of Man
B:Kiaull Vannin 332 
Z:Collected by Mona Douglas 
M:4/4 
L:1/4 
K:G 
GBG B|GB d2|A c A c|A ce2|Bd Bd|Bd g3/2 e/|dd  DD|G2 G2| 
de/f/ gf/e/|d B B2|de/f/ gd|BA A2|G>A B>A|G/F/ G/A/ B B/c/|dd DD|G2 G2|| 

